X:1
T:James Gibb editions
T:Psalm 134 (Becker) - Schütz
%%score [ ( 1 2 ) ( 3 4 ) ]
L:1/8
Q:1/4=98
M:none
K:C
V:1 treble nm="Soprano Alto"
V:2 treble 
V:3 bass nm="Tenor Bass"
V:4 bass 
V:1
"^Cornelius Becker\n(1561-1604)""^Psalm 134, SWV 239""^Heinrich Schütz\n(1585-1672)" D2 | %1
w: ~Den|
w: steht|
 G2 G2 A2 A2 B4 G2 d2 | e2 d2 c2 B2 A6 :|[M:4/2] A2 | B2 c2 d2 e2 c4 B2 B2 | c2 d2 e2 f2 d4 c2 G2 | %6
w: Her- ren lobt mit Freu- den, die|ihr sein Knech- te heißt,|Laßt|euch gar nicht auf- hal- ten, eu'r|Amt recht zu ver- wal- ten zu|
w: ihm zu al- len Zei- ten zu|Dienst mit höchs- tem Fleiß.||||
 G4 A4 (B2 c2) A4 | G6 |] %8
w: Got- tes Ehr * und|Preis.|
w: ||
V:2
 B,2 | E2 E2 E2 ^F2 G4 D2 G2 | G2 G2 G2 G2 ^F6 :|[M:4/2] ^F2 | G2 G2 G2 G4 ^F2 G2 G2 | %5
 E2 G2 G2 A2 G4 E2 E2 | E4 ^F4 G6 !courtesy!^F2 | G6 |] %8
V:3
 G,2 | B,2 C2 C2 D2 D4 B,2 B,2 | C2 D2 E2 D2 D6 :| %3
[M:4/2]"^2. Tut eure Händ aufheben\nin heiliger Gemein,\nLob und Preis Gott zu geben,\nzu ehr'n den Namen sein.\nDer Schöpfer aller Dinge\nlaß sein'm Volk wohl gelingen,\ndaß wir ihn fürchten rein." D2 | %4
 D2 E2 D2 C2 C4 D2 E2 | C2 B,2 C2 C2 B,4 C2 C2 | B,4 D4 (D2 E2) D4 | B,6 |] %8
V:4
 G,2 | E,2 C,2 A,,2 D,2 G,,4 G,,2 G,2 | C,2 B,,2 C,2 G,2 D,6 :|[M:4/2] D,2 | %4
 G,2 C2 B,2 C2 A,4 G,2 E,2 | A,2 G,2 C2 F,2 G,4 C,2 C,2 | E,4 D,4 (G,2 C,2) D,4 | G,6 |] %8

